svgs/thin/user-bounty-hunter.svg

<svg xmlns="http://www.w3.org/2000/svg" viewBox="0 0 448 512"><!--! Font Awesome Pro 6.3.0 by @fontawesome - https://fontawesome.com License - https://fontawesome.com/license (Commercial License) Copyright 2023 Fonticons, Inc. --><path d="M320 352H128c-70.69 0-128 57.31-128 128c0 17.67 14.33 32 32 32h384c17.67 0 32-14.33 32-32C448 409.3 390.7 352 320 352zM155.3 496L224 427.3L292.7 496H155.3zM416 496h-100.7l-85.66-85.66c-3.125-3.125-8.188-3.125-11.31 0L132.7 496H32c-8.822 0-16-7.178-16-16c0-61.76 50.24-112 112-112h192c61.76 0 112 50.24 112 112C432 488.8 424.8 496 416 496zM89.3 293.9L207.8 320h32.31l118.5-26.09c15.48-3.408 26.17-17.43 25.24-33.11l-6.906-117C372.8 63.19 305.5 0 224 0C157.4 0 101 42.44 80 101.8V16h24c4.418 0 8-3.582 8-8S108.4 0 104 0h-32C67.58 0 64 3.582 64 8v256l.1777-2.211C63.77 277 74.16 290.6 89.3 293.9zM362.1 161.7C346.2 167.9 280 198.3 280 270.9c0 4.422 3.594 8 8 8s8-3.578 8-8c0-58.17 48.48-84.34 67.06-92.28l4.908 83.17c.4648 7.859-4.881 14.81-12.71 16.54L256 300.1V182.1l105.6-28.15L362.1 161.7zM224 16c61.46 0 113.4 40.25 130.7 96H93.25C110.6 56.27 162.5 16 224 16zM89.48 128h269c.5879 3.254 1.146 6.512 1.498 9.846l-114.1 30.42C242.4 169.2 240 172.4 240 176v127.7L238.4 304H209.6L208 303.7V176c0-3.625-2.438-6.797-5.938-7.734L87.98 137.8C88.33 134.5 88.89 131.3 89.48 128zM84.94 178.6C103.5 186.5 152 212.7 152 270.9c0 4.422 3.594 8 8 8s8-3.578 8-8c0-72.54-66.16-102.9-82.06-109.2L86.39 153.1L192 182.1v117.1L92.74 278.3c-7.83-1.723-13.18-8.678-12.71-16.54L84.94 178.6z"/></svg>

<svg xmlns="http://www.w3.org/2000/svg" viewBox="0 0 448 512"><!-- Font Awesome Pro 6.0.0-alpha2 by @fontawesome - https://fontawesome.com License - https://fontawesome.com/license (Commercial License) --><path d="M320 352H128C57.307 352 0 409.307 0 480C0 497.672 14.326 512 32 512H416C433.674 512 448 497.672 448 480C448 409.307 390.693 352 320 352ZM155.312 496L224 427.312L292.688 496H155.312ZM416 496H315.312L229.656 410.344C226.531 407.219 221.469 407.219 218.344 410.344L132.688 496H32C23.178 496 16 488.822 16 480C16 418.242 66.242 368 128 368H320C381.758 368 432 418.242 432 480C432 488.822 424.822 496 416 496ZM89.301 293.91L207.846 320H240.154L358.699 293.91C374.176 290.502 384.869 276.479 383.943 260.803L377.037 143.801C372.752 63.188 305.506 0 224 0C157.439 0 101.02 42.439 80 101.795V16H104C108.418 16 112 12.418 112 8S108.418 0 104 0H72C67.582 0 64 3.582 64 8V264C64 264 64.07 263.115 64.178 261.789C63.766 277.049 74.162 290.576 89.301 293.91ZM362.064 161.686C346.156 167.932 280 198.314 280 270.859C280 275.281 283.594 278.859 288 278.859S296 275.281 296 270.859C296 212.693 344.482 186.523 363.062 178.58L367.971 261.746C368.436 269.605 363.09 276.561 355.26 278.283L256 300.129V182.141L361.609 153.988L362.064 161.686ZM224 16C285.465 16 337.402 56.246 354.734 112H93.25C110.559 56.271 162.514 16 224 16ZM89.477 128H358.518C359.105 131.254 359.664 134.512 360.016 137.846L245.938 168.266C242.438 169.203 240 172.375 240 176V303.65L238.414 304H209.586L208 303.65V176C208 172.375 205.562 169.203 202.062 168.266L87.979 137.844C88.326 134.51 88.891 131.256 89.477 128ZM84.939 178.58C103.52 186.521 152 212.693 152 270.859C152 275.281 155.594 278.859 160 278.859S168 275.281 168 270.859C168 198.316 101.844 167.932 85.936 161.686L86.391 153.988L192 182.141V300.129L92.74 278.283C84.91 276.561 79.564 269.605 80.029 261.746L84.939 178.58Z"/></svg>
